svgs/sharp-solid/film-slash.svg

<svg xmlns="http://www.w3.org/2000/svg" viewBox="0 0 640 512"><!--! Font Awesome Pro 6.6.0 by @fontawesome - https://fontawesome.com License - https://fontawesome.com/license (Commercial License) Copyright 2024 Fonticons, Inc. --><path d="M29.4 .1l19 14.7L70.5 32 576 32l0 392.4 44.9 34.9 19 14.7-29.4 37.9-19-14.7L19 52.7 0 38 29.4 .1zM317.9 224l98.1 0 0-128L224 96l0 55.1L317.9 224zm88.3 192l81.2 64L64 480l0-333.6L162.5 224 112 224l0 64 64 0 0-53.3L243.7 288 224 288l0 128 182.2 0zM176 352l-64 0 0 64 64 0 0-64zM528 224l-64 0 0 64 64 0 0-64zM464 96l0 64 64 0 0-64-64 0z"/></svg>

<svg xmlns="http://www.w3.org/2000/svg" viewBox="0 0 640 512"><!--! Font Awesome Pro 6.4.2 by @fontawesome - https://fontawesome.com License - https://fontawesome.com/license (Commercial License) Copyright 2023 Fonticons, Inc. --><path d="M29.4 .1l19 14.7L70.5 32H576V424.4l44.9 34.9 19 14.7-29.4 37.9-19-14.7L19 52.7 0 38 29.4 .1zM317.9 224H416V96H224v55.1L317.9 224zm88.3 192l81.2 64H64V146.4L162.5 224H112v64h64V234.7L243.7 288H224V416H406.2zM176 352H112v64h64V352zM528 224H464v64h64V224zM464 96v64h64V96H464z"/></svg>
